assets/illustrations/multisize/48/email.svg

<?xml version="1.0" encoding="utf-8"?>
<!-- Generator: Adobe Illustrator 21.1.0, SVG Export Plug-In . SVG Version: 6.00 Build 0)  -->
<svg version="1.1" xmlns="http://www.w3.org/2000/svg" xmlns:xlink="http://www.w3.org/1999/xlink" x="0px" y="0px"
	 viewBox="0 0 48 48" enable-background="new 0 0 48 48" xml:space="preserve">
<g id="TEMPLATE" display="none">
	<g display="inline">
		<path fill="#D0D0D0" d="M48,0v48H0V0H48 M49-1h-1H0h-1v1v48v1h1h48h1v-1V0V-1L49-1z"/>
	</g>
	<g display="inline" opacity="0.1">
		<path fill="#FF3A6D" d="M45,3v42H3V3H45 M48,0H0v48h48V0L48,0z"/>
	</g>
</g>
<g id="ICONS">
	<rect x="4" y="10" fill="#FFFFFF" width="40" height="28"/>
	<rect x="4" y="10" fill="#FFFFFF" width="40" height="28"/>
	<path fill="#949494" d="M3,9v30h42V9H3z M44,38H4V10h40V38z"/>
	<path fill="#69AFE5" d="M40,14v5h-5v-5H40 M41,13h-7v7h7V13L41,13z"/>
	<rect x="7" y="13" fill="#C8C8C8" width="7" height="1"/>
	<rect x="7" y="16" fill="#C8C8C8" width="7" height="1"/>
	<rect x="14" y="28" transform="matrix(-1 -1.224647e-16 1.224647e-16 -1 48 57)" fill="#C8C8C8" width="20" height="1"/>
	<rect x="14" y="25" transform="matrix(-1 -1.224647e-16 1.224647e-16 -1 48 51)" fill="#C8C8C8" width="20" height="1"/>
	<rect x="14" y="31" transform="matrix(-1 -1.224647e-16 1.224647e-16 -1 48 63)" fill="#C8C8C8" width="20" height="1"/>
	<linearGradient id="SVGID_1_" gradientUnits="userSpaceOnUse" x1="7.9372" y1="4.8572" x2="40.0628" y2="43.1428">
		<stop  offset="0" style="stop-color:#FFFFFF;stop-opacity:0"/>
		<stop  offset="0.2264" style="stop-color:#FCFCFC;stop-opacity:0.0226"/>
		<stop  offset="0.3626" style="stop-color:#F4F4F4;stop-opacity:0.0363"/>
		<stop  offset="0.475" style="stop-color:#E6E6E6;stop-opacity:0.0475"/>
		<stop  offset="0.5744" style="stop-color:#D1D1D1;stop-opacity:0.0574"/>
		<stop  offset="0.6652" style="stop-color:#B7B7B7;stop-opacity:0.0665"/>
		<stop  offset="0.7498" style="stop-color:#979797;stop-opacity:0.075"/>
		<stop  offset="0.8297" style="stop-color:#707070;stop-opacity:0.083"/>
		<stop  offset="0.9057" style="stop-color:#444444;stop-opacity:0.0906"/>
		<stop  offset="0.9761" style="stop-color:#121212;stop-opacity:0.0976"/>
		<stop  offset="1" style="stop-color:#000000;stop-opacity:0.1"/>
	</linearGradient>
	<rect x="3" y="9" fill="url(#SVGID_1_)" width="42" height="30"/>
	<linearGradient id="SVGID_2_" gradientUnits="userSpaceOnUse" x1="22.8542" y1="25.0897" x2="42.6146" y2="6.2979">
		<stop  offset="0" style="stop-color:#FFFFFF;stop-opacity:0"/>
		<stop  offset="0.8537" style="stop-color:#FFFFFF;stop-opacity:0.2134"/>
		<stop  offset="1" style="stop-color:#FFFFFF;stop-opacity:0.25"/>
	</linearGradient>
	<polygon fill="url(#SVGID_2_)" points="45,9 3,9 3,10 44,10 44,39 45,39 	"/>
</g>
</svg>

<svg id="f180703c-31ab-4a58-a131-ea65824044cc" data-name="ICONS" xmlns="http://www.w3.org/2000/svg" xmlns:xlink="http://www.w3.org/1999/xlink" viewBox="0 0 48 48"><defs><linearGradient id="7fe3d880-9edb-4a31-8eac-270b290d9c6a" x1="7.93725" y1="4.85716" x2="40.06275" y2="43.14284" gradientUnits="userSpaceOnUse"><stop offset="0" stop-color="#fff" stop-opacity="0"/><stop offset="0.86247" stop-color="#5e5e5e" stop-opacity="0.06315"/><stop offset="1" stop-opacity="0.1"/></linearGradient><linearGradient id="72511b1b-8206-4bdd-b9db-ce108080b647" x1="22.85417" y1="25.08966" x2="42.61458" y2="6.2979" gradientUnits="userSpaceOnUse"><stop offset="0" stop-color="#fff" stop-opacity="0"/><stop offset="0.44604" stop-color="#fff" stop-opacity="0.00799"/><stop offset="0.63551" stop-color="#fff" stop-opacity="0.03616"/><stop offset="0.77636" stop-color="#fff" stop-opacity="0.08493"/><stop offset="0.8924" stop-color="#fff" stop-opacity="0.15385"/><stop offset="0.99328" stop-color="#fff" stop-opacity="0.24291"/><stop offset="1" stop-color="#fff" stop-opacity="0.25"/></linearGradient></defs><title>FileTypeIcons_Master_All_NEW</title><rect x="4" y="10" width="40" height="28" fill="#fff"/><rect x="4" y="10" width="40" height="28" fill="#fff"/><path d="M3,9V39H45V9ZM44,38H4V10H44Z" fill="#949494"/><path d="M40,14v5H35V14h5m1-1H34v7h7V13Z" fill="#69afe5"/><rect x="7" y="13" width="7" height="1" fill="#c8c8c8"/><rect x="7" y="16" width="7" height="1" fill="#c8c8c8"/><rect x="14" y="28" width="20" height="1" transform="translate(48 57) rotate(180)" fill="#c8c8c8"/><rect x="14" y="25" width="20" height="1" transform="translate(48 51) rotate(180)" fill="#c8c8c8"/><rect x="14" y="31" width="20" height="1" transform="translate(48 63) rotate(180)" fill="#c8c8c8"/><rect x="3" y="9" width="42" height="30" fill="url(#7fe3d880-9edb-4a31-8eac-270b290d9c6a)"/><polygon points="45 9 3 9 3 10 44 10 44 39 45 39 45 9" fill="url(#72511b1b-8206-4bdd-b9db-ce108080b647)"/></svg>
